icons/logo-gist-16.svg

<svg width="25" height="16" viewBox="0 0 25 16" fill="none" xmlns="http://www.w3.org/2000/svg">
<path fill-rule="evenodd" clip-rule="evenodd" d="M4.7 8.73H7.15V12.75C6.6 13.02 5.51 13.09 4.62 13.09C2.06 13.09 1.15 10.89 1.15 8.04C1.15 5.19 2.06 2.98 4.63 2.98C5.91 2.98 6.69 3.21 7.91 3.71V2.66C7.27 2.33 6.25 2 4.63 2C1.13 2 0 4.69 0 8.03C0 11.37 1.11 14.06 4.63 14.06C6.27 14.06 7.44 13.79 8.22 13.42V7.73H4.7V8.73ZM11.09 12.45V6.06H10.04V12.34C10.04 13.59 10.62 14.06 11.76 14.06V13.17C11.28 13.17 11.09 13.01 11.09 12.47V12.45ZM11.34 3.73001C11.34 3.29001 11.01 2.95001 10.56 2.95001C10.11 2.95001 9.79 3.29001 9.79 3.73001C9.79 4.17001 10.12 4.51001 10.56 4.51001C11 4.51001 11.34 4.17001 11.34 3.73001ZM15.68 9.42C14.18 9.29 13.9 8.94 13.9 8.25C13.9 7.48 14.23 6.91 15.78 6.91C16.83 6.91 17.44 7.07 18.05 7.27V6.33C17.36 6.03 16.53 5.94 15.8 5.94C13.6 5.94 12.88 7.14 12.88 8.25C12.88 9.33 13.35 10.13 15.61 10.33C17.16 10.46 17.38 10.96 17.38 11.67C17.38 12.4 16.94 13.09 15.32 13.09C14.21 13.09 13.46 12.9 12.99 12.73V13.67C13.49 13.87 14.57 14.06 15.32 14.06C17.7 14.06 18.46 12.86 18.46 11.65C18.46 10.37 17.93 9.62 15.71 9.42H15.69H15.68ZM24.26 6.95003V6.09003H21.84V3.59003L20.76 3.90003V6.01003L19.2 6.45003V6.93003H20.76V11.93C20.76 13.46 21.95 14.06 23.26 14.06C23.45 14.06 23.78 14.04 23.95 14.01V13.12C23.76 13.15 23.54 13.15 23.34 13.15C22.37 13.15 21.84 12.76 21.84 11.81V6.94003H24.26V6.96003V6.95003Z" fill="#1B1F23"/>
</svg>

<svg xmlns="http://www.w3.org/2000/svg" width="25" height="16" viewBox="0 0 25 16"><path fill-rule="evenodd" d="M4.7 8.73h2.45v4.02c-.55.27-1.64.34-2.53.34-2.56 0-3.47-2.2-3.47-5.05 0-2.85.91-5.06 3.48-5.06 1.28 0 2.06.23 3.28.73V2.66C7.27 2.33 6.25 2 4.63 2 1.13 2 0 4.69 0 8.03c0 3.34 1.11 6.03 4.63 6.03 1.64 0 2.81-.27 3.59-.64V7.73H4.7v1zm6.39 3.72V6.06h-1.05v6.28c0 1.25.58 1.72 1.72 1.72v-.89c-.48 0-.67-.16-.67-.7v-.02zm.25-8.72c0-.44-.33-.78-.78-.78s-.77.34-.77.78.33.78.77.78.78-.34.78-.78zm4.34 5.69c-1.5-.13-1.78-.48-1.78-1.17 0-.77.33-1.34 1.88-1.34 1.05 0 1.66.16 2.27.36v-.94c-.69-.3-1.52-.39-2.25-.39-2.2 0-2.92 1.2-2.92 2.31 0 1.08.47 1.88 2.73 2.08 1.55.13 1.77.63 1.77 1.34 0 .73-.44 1.42-2.06 1.42-1.11 0-1.86-.19-2.33-.36v.94c.5.2 1.58.39 2.33.39 2.38 0 3.14-1.2 3.14-2.41 0-1.28-.53-2.03-2.75-2.23h-.03zm8.58-2.47v-.86h-2.42v-2.5l-1.08.31v2.11l-1.56.44v.48h1.56v5c0 1.53 1.19 2.13 2.5 2.13.19 0 .52-.02.69-.05v-.89c-.19.03-.41.03-.61.03-.97 0-1.5-.39-1.5-1.34V6.94h2.42v.02-.01z"/></svg>
